images/global/icons/social-media/icon-instagram.svg

<?xml version="1.0" encoding="UTF-8" standalone="no"?>
<svg width="44px" height="44px" viewBox="0 0 44 44" version="1.1" xmlns="http://www.w3.org/2000/svg" xmlns:xlink="http://www.w3.org/1999/xlink">
    <!-- Generator: Sketch 3.8.1 (29687) - http://www.bohemiancoding.com/sketch -->
    <title>instagram</title>
    <desc>Created with Sketch.</desc>
    <defs>
        <circle id="path-1" cx="22" cy="22" r="22"></circle>
        <mask id="mask-2" maskContentUnits="userSpaceOnUse" maskUnits="objectBoundingBox" x="0" y="0" width="44" height="44" fill="white">
            <use xlink:href="#path-1"></use>
        </mask>
    </defs>
    <g id="Social-Icons" stroke="none" stroke-width="1" fill="none" fill-rule="evenodd">
        <g transform="translate(-240.000000, -60.000000)" id="instagram">
            <g transform="translate(240.000000, 60.000000)">
                <rect id="Rectangle" x="0" y="0" width="44" height="44"></rect>
                <use id="Oval" stroke="#091F2F" mask="url(#mask-2)" stroke-width="4" xlink:href="#path-1"></use>
                <path d="M28.1347601,12 L15.8652399,12 C13.7344779,12 12,13.733302 12,15.8652399 L12,28.1347601 C12,30.266698 13.7344779,32 15.8652399,32 L28.1347601,32 C30.2655221,32 32,30.266698 32,28.1347601 L32,15.8652399 C32,13.733302 30.2655221,12 28.1347601,12 L28.1347601,12 Z M29.24365,14.3059737 L29.6857949,14.3036218 L29.6857949,17.6937912 L26.3062088,17.7043744 L26.2944497,14.3142051 L29.24365,14.3059737 L29.24365,14.3059737 Z M19.1460489,19.9468485 C19.7857479,19.060207 20.8252587,18.4793039 22,18.4793039 C23.1747413,18.4793039 24.2142521,19.060207 24.8539511,19.9468485 C25.2714017,20.5253998 25.5206961,21.233302 25.5206961,22 C25.5206961,23.9402634 23.9414393,25.5195202 22,25.5195202 C20.0597366,25.5195202 18.4804798,23.9402634 18.4804798,22 C18.4804798,21.233302 18.7297742,20.5253998 19.1460489,19.9468485 L19.1460489,19.9468485 Z M30.0515052,28.1347601 C30.0515052,29.1919097 29.1919097,30.0515052 28.1347601,30.0515052 L15.8652399,30.0515052 C14.8080903,30.0515052 13.9484948,29.1919097 13.9484948,28.1347601 L13.9484948,19.9468485 L16.9353246,19.9468485 C16.6766228,20.5818438 16.5319849,21.2744591 16.5319849,22 C16.5319849,25.0150517 18.9849483,27.469191 22,27.469191 C25.0162277,27.469191 27.469191,25.0150517 27.469191,22 C27.469191,21.2744591 27.3222013,20.5818438 27.0658514,19.9468485 L30.0515052,19.9468485 L30.0515052,28.1347601 L30.0515052,28.1347601 Z" id="Shape" fill="#091F2F"></path>
            </g>
        </g>
    </g>
</svg>

<svg width="44" height="44" viewBox="0 0 44 44" xmlns="http://www.w3.org/2000/svg" xmlns:xlink="http://www.w3.org/1999/xlink"><title>instagram</title><defs><circle id="a" cx="22" cy="22" r="22"/><mask id="b" x="0" y="0" width="44" height="44" fill="#fff"><use xlink:href="#a"/></mask></defs><g fill="none" fill-rule="evenodd"><path d="M0 0h44v44H0z"/><use stroke="#091F2F" mask="url(#b)" stroke-width="4" xlink:href="#a"/><path d="M28.135 12h-12.27C13.735 12 12 13.733 12 15.865v12.27C12 30.267 13.734 32 15.865 32h12.27C30.265 32 32 30.267 32 28.135v-12.27C32 13.733 30.266 12 28.135 12zm1.11 2.306l.44-.002v3.39l-3.38.01-.01-3.39 2.95-.008zm-10.1 5.64c.64-.886 1.68-1.467 2.855-1.467s2.214.58 2.854 1.467c.417.578.667 1.286.667 2.053 0 1.94-1.58 3.52-3.52 3.52s-3.52-1.58-3.52-3.52c0-.767.25-1.475.666-2.053zm10.907 8.19c0 1.056-.86 1.916-1.917 1.916h-12.27c-1.057 0-1.917-.86-1.917-1.917v-8.188h2.987c-.258.635-.403 1.327-.403 2.053 0 3.015 2.453 5.47 5.468 5.47 3.016 0 5.47-2.455 5.47-5.47 0-.726-.148-1.418-.404-2.053h2.986v8.188z" fill="#091F2F"/></g></svg>
